svg/RightHanded/col-resize.svg

<?xml version="1.0" encoding="UTF-8" standalone="no"?>
<!-- Created with Inkscape (http://www.inkscape.org/) -->

<svg
   xmlns:dc="http://purl.org/dc/elements/1.1/"
   xmlns:cc="http://creativecommons.org/ns#"
   xmlns:rdf="http://www.w3.org/1999/02/22-rdf-syntax-ns#"
   xmlns:svg="http://www.w3.org/2000/svg"
   xmlns="http://www.w3.org/2000/svg"
   xmlns:xlink="http://www.w3.org/1999/xlink"
   version="1.0"
   width="500"
   height="500"
   viewBox="0 0 1000 1000"
   id="page"
   xml:space="preserve"><metadata
     id="metadata11"><rdf:RDF><cc:Work
         rdf:about=""><dc:format>image/svg+xml</dc:format><dc:type
           rdf:resource="http://purl.org/dc/dcmitype/StillImage" /><dc:title></dc:title></cc:Work></rdf:RDF></metadata><defs
     id="defs38"><linearGradient
       id="linearGradient2218"><stop
         id="stop2220"
         style="stop-color:#999999;stop-opacity:1"
         offset="0" /><stop
         id="stop2222"
         style="stop-color:#555555;stop-opacity:1"
         offset="1" /></linearGradient><linearGradient
       x1="74.243698"
       y1="79.260956"
       x2="74.243698"
       y2="323.11407"
       id="linearGradient3031"
       xlink:href="#linearGradient2218"
       gradientUnits="userSpaceOnUse"
       gradientTransform="matrix(2,0,0,2,-4.953613e-5,-4.638663e-7)" /><filter
       x="-0.20223406"
       y="-0.29510993"
       width="1.4044681"
       height="1.5902199"
       color-interpolation-filters="sRGB"
       id="filter3790"><feGaussianBlur
         id="feGaussianBlur3792"
         stdDeviation="57.510311" /></filter></defs><path
     d="m 1006.3729,1149.0529 c 0.1226,39.6206 71.8774,39.6206 72,0 0.1226,-39.6206 1.125,-149.875 9,-149.875 12.728,0 67.149,-3.79052 79.875,8.9375 12.729,12.728 25.0295,50.5285 38.6875,64.1875 13.084,13.081 177.6865,-113.59852 177.6875,-127.8125 0,-12.727 -164.661,-140.84202 -177.375,-128.125 -12.729,12.729 -26.272,51.772 -39,64.5 -12.728,12.728 -54.42,19.3115 -79.875,19.3125 -7.875,0 -8.877,-121.17897 -9,-159.99999 -0.123,-38.82102 -71.877,-38.82102 -72,0 -0.123,38.82102 -1.125,160.00001 -9.00002,159.99999 -25.455,-10e-4 -67.14702,-6.5835 -79.875,-19.3125 -12.729,-12.729 -26.27102,-51.771 -39,-64.5 -12.714,-12.717 -177.37502,115.397 -177.375,128.125 0,14.214 164.60448,140.8935 177.6875,127.8125 13.659,-13.66 25.95848,-51.4595 38.6875,-64.1875 12.727,-12.729 67.14702,-8.93752 79.875,-8.9375 7.87502,0 8.87742,110.2544 9.00002,149.875 z"
     transform="matrix(1.2,0,0,1.2,-751.11012,-611.5233)"
     id="path4052-0"
     style="opacity:0.15;fill:#111111;fill-opacity:1;stroke:none;filter:url(#filter3790)" /><path
     d="m 463.73735,606.51265 c 0.12256,39.62062 71.87742,39.62062 72,0 0.12258,-39.62062 1.125,-149.875 9,-149.875 12.728,0 67.14902,-3.79052 79.875,8.9375 12.729,12.728 25.0295,50.52852 38.6875,64.1875 13.084,13.081 177.6865,-113.59852 177.6875,-127.8125 0,-12.727 -164.661,-140.84202 -177.375,-128.125 -12.729,12.729 -26.272,51.772 -39,64.5 -12.728,12.728 -54.41998,19.3115 -79.875,19.3125 -7.875,0 -8.87694,-121.17898 -9,-160 -0.12306,-38.82102 -71.87696,-38.82102 -72,0 -0.12304,38.82102 -1.125,160.00002 -9,160 -25.455,-0.001 -67.14702,-6.5835 -79.875,-19.3125 -12.729,-12.729 -26.27102,-51.771 -39,-64.5 -12.714,-12.717 -177.37502,115.397 -177.375,128.125 0,14.214 164.60448,140.89352 177.6875,127.8125 13.659,-13.66 25.95848,-51.45952 38.6875,-64.1875 12.727,-12.729 67.14702,-8.93752 79.875,-8.9375 7.875,0 8.87744,110.25438 9,149.875 z"
     id="path4052"
     style="opacity:0.75;fill:url(#linearGradient3031);fill-opacity:1;stroke:#000000;stroke-width:20;stroke-linecap:round;stroke-linejoin:round;stroke-miterlimit:1;stroke-dasharray:none" /></svg>

<?xml version="1.0" encoding="UTF-8" standalone="no"?>
<!-- Created with Inkscape (http://www.inkscape.org/) -->
<svg
   xmlns:svg="http://www.w3.org/2000/svg"
   xmlns="http://www.w3.org/2000/svg"
   xmlns:xlink="http://www.w3.org/1999/xlink"
   version="1.0"
   width="500"
   height="500"
   viewBox="0 0 1000 1000"
   id="page"
   xml:space="preserve"><defs
     id="defs38"><linearGradient
       id="linearGradient2218"><stop
         id="stop2220"
         style="stop-color:#999999;stop-opacity:1"
         offset="0" /><stop
         id="stop2222"
         style="stop-color:#555555;stop-opacity:1"
         offset="1" /></linearGradient><linearGradient
       x1="74.243698"
       y1="79.260956"
       x2="74.243698"
       y2="323.11407"
       id="linearGradient3031"
       xlink:href="#linearGradient2218"
       gradientUnits="userSpaceOnUse"
       gradientTransform="matrix(2,0,0,2,-4.953613e-5,-4.638663e-7)" /></defs><path
     d="M 463.73735,606.51265 C 463.85991,646.13327 535.61477,646.13327 535.73735,606.51265 C 535.85993,566.89203 536.86235,456.63765 544.73735,456.63765 C 557.46535,456.63765 611.88637,452.84713 624.61235,465.57515 C 637.34135,478.30315 649.64185,516.10367 663.29985,529.76265 C 676.38385,542.84365 840.98635,416.16413 840.98735,401.95015 C 840.98735,389.22315 676.32635,261.10813 663.61235,273.82515 C 650.88335,286.55415 637.34035,325.59715 624.61235,338.32515 C 611.88435,351.05315 570.19237,357.63665 544.73735,357.63765 C 536.86235,357.63765 535.86041,236.45867 535.73735,197.63765 C 535.61429,158.81663 463.86039,158.81663 463.73735,197.63765 C 463.61431,236.45867 462.61235,357.63767 454.73735,357.63765 C 429.28235,357.63665 387.59033,351.05415 374.86235,338.32515 C 362.13335,325.59615 348.59133,286.55415 335.86235,273.82515 C 323.14835,261.10815 158.48733,389.22215 158.48735,401.95015 C 158.48735,416.16415 323.09183,542.84367 336.17485,529.76265 C 349.83385,516.10265 362.13333,478.30313 374.86235,465.57515 C 387.58935,452.84615 442.00937,456.63763 454.73735,456.63765 C 462.61235,456.63765 463.61479,566.89203 463.73735,606.51265 z"
     id="path4052"
     style="opacity:1;fill:url(#linearGradient3031);fill-opacity:1;stroke:#000000;stroke-width:20;stroke-linecap:round;stroke-linejoin:round;stroke-miterlimit:1;stroke-dasharray:none" /></svg>
